theme/brb/static/images/logo/cloud-transparent-mono-48-48.svg

<?xml version="1.0" encoding="UTF-8"?>
<svg width="60px" height="60px" viewBox="0 0 60 60" version="1.1" xmlns="http://www.w3.org/2000/svg" xmlns:xlink="http://www.w3.org/1999/xlink">
    <title>web_Logo_BRB-SC_Bildmarke_60x60</title>
    <g id="web_Logo_BRB-SC_Bildmarke_60x60" stroke="none" stroke-width="1" fill="none" fill-rule="evenodd">
        <g id="Logo">
            <polygon id="BG" points="0 60 60 60 60 0 0 0"></polygon>
            <path d="M20.1374152,25.0005475 L20.36675,25.005 L23.94175,27.4775 C23.68175,27.9025 23.14425,28.1 22.66675,27.855 C19.29675,26.1325 16.15425,28.3025 16.16675,32.27 C16.16925,32.9425 15.56675,33.44 14.93675,33.285 C8.84175,31.79 5.71925,37.195 9.20675,40.94 C10.45925,42.2825 11.61675,42.51 15.23425,42.4375 L15.23425,42.4375 L37.70675,42.42 C38.02475,42.423 38.26755,42.4248 38.47099,42.42524 L38.75111,42.42486 C38.92415,42.4239 39.07575,42.4215 39.24175,42.4175 C40.67925,42.4175 42.00175,41.925 43.08925,41.11 L43.08925,41.11 L44.99925,43.0925 C43.51425,44.2575 41.69175,44.97 39.69925,44.97 C39.6594773,44.9709091 39.6204483,44.9717355 39.5817218,44.9724812 L39.3494604,44.9760011 C39.0352004,44.9794421 38.6837955,44.9779545 38.06925,44.9725 L38.06925,44.9725 L14.86925,44.9875 C10.56675,45.075 8.94175,44.7575 7.10425,42.785 C2.27675,37.605 6.27425,30.025 13.80675,31.0425 C14.30675,27.2925 17.06675,24.8825 20.36675,25.005 Z M35.4125,14.99975 L42.21,23.53975 L46.1275,23.02475 L48.24,24.37975 L48.24,25.69225 L47.5,24.94475 L46.1275,24.94475 L45.085,25.86225 L55,31.27475 L55,39.99975 L49.845,33.84725 L38.435,28.45975 L34.0975,31.44475 L27.97,29.87975 L29.9025,28.30475 L37.22,27.22975 L32.8125,19.89725 L25,14.99975 L35.4125,14.99975 Z" id="Combined-Shape" fill="#E4032E"></path>
        </g>
    </g>
</svg>

<svg xmlns="http://www.w3.org/2000/svg" width="59" height="60" xmlns:v="https://vecta.io/nano"><path d="M20.137 25.001l.229.004 3.575 2.473c-.26.425-.797.623-1.275.378-3.37-1.723-6.512.447-6.5 4.415.003.672-.6 1.17-1.23 1.015-6.095-1.495-9.218 3.91-5.73 7.655 1.253 1.343 2.41 1.57 6.028 1.498h0l22.473-.017.764.005h.28l.491-.007c1.438 0 2.76-.492 3.847-1.307h0l1.91 1.983c-1.485 1.165-3.308 1.877-5.3 1.877l-.118.002-.232.004a65.57 65.57 0 0 1-1.28-.004h0l-23.2.015c-4.302.088-5.927-.23-7.765-2.203-4.828-5.18-.83-12.76 6.702-11.742.5-3.75 3.26-6.16 6.56-6.038zM35.413 15l6.797 8.54 3.917-.515 2.113 1.355v1.313l-.74-.748h-1.373l-1.042.918L55 31.275V40l-5.155-6.152-11.41-5.388-4.338 2.985-6.127-1.565 1.933-1.575 7.317-1.075-4.407-7.332L25 15h10.413z" fill="#e4032e" fill-rule="evenodd"/></svg>
